X:1
T:Juggler [1], The
M:6/8
L:1/8
R:Country Dance Tune and Jig
B:R. Baldwin - London Magazine; or, Gentleman's Monthly Intelligencer (vol. 20, March, 1751; p. 133)
Z:AK/Fiddler's Companion
K:Bb
B|fga b2c|def g2B|Ace ded|dBB B2B|
fga b2g|f=ef c2B|Acf Gf=e|fcA F2:|
|:F|ABc c2F|ABc F2F|Bcd d2G|Bcd G2G|
cde edc|def gab|fBe dec|BFD B,2:|]

